samples/weather-forecast/src/components/Icons/weather-icons/icons/showers.svg

<svg width="48" height="48" viewBox="0 0 48 48" fill="none" xmlns="http://www.w3.org/2000/svg">
<path fill-rule="evenodd" clip-rule="evenodd" d="M33.8127 21.0641C33.8127 21.0641 33.997 22 34.0599 22.009C37.4537 22.4929 40 24.4725 40 28C40 31.866 36.866 35 33 35H15C11.134 35 8 31.866 8 28C8 24.4725 10.6092 21.5544 14.003 21.0705C14.0659 21.0615 14.1275 21.0596 14.1873 21.0641C15.0889 16.4677 19.1395 13 24 13C28.8605 13 32.9111 16.4677 33.8127 21.0641Z" fill="#F3F3F3"/>
<path d="M33 35H33.4118C37.0503 35 40 32.1272 40 28.5833C40 25.3383 37.5268 22.6559 34.3161 22.2266C33.8697 17.0587 29.4215 13 24 13C19.2043 13 15.1702 16.1758 13.9938 20.486C10.5718 21.1766 8 24.1291 8 27.6667C8 31.5434 11.0886 34.7175 15 34.9822" stroke="#231815" stroke-width="2" stroke-linecap="round" stroke-linejoin="round"/>
<path d="M18 37.6961L20.5 33.366M23 36.6961L25.5 32.366M27 38.6961L29.5 34.366" stroke="#231815" stroke-width="2" stroke-linecap="round" stroke-linejoin="round"/>
</svg>

<svg xmlns="http://www.w3.org/2000/svg" width="48" height="48" fill="none">
  <path fill="#F3F3F3" fill-rule="evenodd" d="M33.813 21.064s.184.936.247.945C37.454 22.493 40 24.472 40 28a7 7 0 0 1-7 7H15a7 7 0 0 1-.997-13.93.85.85 0 0 1 .184-.006C15.09 16.468 19.14 13 24 13s8.911 3.468 9.813 8.064Z" clip-rule="evenodd"/>
  <path stroke="#231815" stroke-linecap="round" stroke-linejoin="round" stroke-width="2" d="M33 35h.412C37.05 35 40 32.127 40 28.583c0-3.245-2.473-5.927-5.684-6.356C33.87 17.059 29.421 13 24 13c-4.796 0-8.83 3.176-10.006 7.486-3.422.69-5.994 3.643-5.994 7.18 0 3.877 3.089 7.052 7 7.316M18 37.696l2.5-4.33m2.5 3.33 2.5-4.33m1.5 6.33 2.5-4.33"/>
</svg>
